bookmark-music.svg

<svg fill="currentColor" viewBox="0 0 24 24"><path d="M17 3a2 2 0 0 1 2 2v16l-7-3-7 3V5a2 2 0 0 1 2-2zm-6 8a2 2 0 0 0-2 2 2 2 0 0 0 2 2 2 2 0 0 0 2-2V8h3V6h-4v5.27c-.29-.17-.64-.27-1-.27"/></svg>

<svg  viewBox="0 0 24 24" fill="currentColor"><path  d="M17,3A2,2 0 0,1 19,5V21L12,18L5,21V5C5,3.89 5.9,3 7,3H17M11,11A2,2 0 0,0 9,13A2,2 0 0,0 11,15A2,2 0 0,0 13,13V8H16V6H12V11.27C11.71,11.1 11.36,11 11,11Z"/></svg>
